X:628
T:Que te tengo que dar
C:Tradicional
S:Msica Tradicional Asturiana, (C) Tello & Tito. Asturies, 2001.
S:http://pagina.de/MusTradAst <telloytito@asturies.org>
A:Asturies
Z:Asturias, canciones
M:2/4
L:1/8
Q:1/4=110
K:C
|C3 E|GG GG|GG GG|AA AA|(G3 F)|
C3 E|GG GG|GG GG|AA AA|G3 F|E3 F|
GG GG|F2 FE|D3 E|FF FF|E2 ED|C3 E|
GG GG|F2 FE|D3 E|FF FF|E2 (ED|C4)||
